icon/lg/web.dev.svg

<?xml version="1.0" encoding="UTF-8"?>
<svg viewBox="0 0 512 96" version="1.1" xmlns="http://www.w3.org/2000/svg" xmlns:xlink="http://www.w3.org/1999/xlink" preserveAspectRatio="xMidYMid" height="1em" width="1em">
  <g>
    <g>
      <path d="M96.7525811,68.3059497 L59.943186,68.3059497 C59.5295973,68.3059497 58.7024198,68.3059497 58.2888311,68.7195384 L30.5783876,90.63974 C30.1647989,91.0533287 30.1647989,91.4669174 30.5783876,91.8805061 C30.5783876,92.2940948 30.9919763,92.2940948 31.405565,92.2940948 L97.1661698,92.2940948 C103.783589,92.2940948 109.573831,86.5038529 109.160242,79.4728448 C108.746654,72.8554255 102.956412,68.3059497 96.7525811,68.3059497" fill="#00C9DB"/>
      <path d="M66.7219049,45.215292 C66.3083162,41.9065823 64.6539614,38.5978727 62.1724291,36.5299291 L19.572792,2.61565492 C14.1961388,-1.52023218 6.75154202,-0.693054758 2.61565492,4.68359847 C-1.52023218,10.0602517 -0.693054758,17.5048485 4.68359847,21.6407356 L35.7027517,46.4560581 L4.68359847,71.2713807 C-0.693054758,75.4072678 -1.52023218,82.8518646 2.61565492,88.2285178 C6.75154202,93.605171 14.1961388,94.4323485 19.572792,90.2964614 L62.1724291,55.5550098 C65.0675501,53.0734775 66.7219049,49.7647678 66.7219049,46.0424694 L66.7219049,45.215292" fill="#0D55FF"/>
      <path d="M109.160242,80.3000223 C109.160242,86.9174416 103.783589,92.2940948 97.1661698,92.2940948 C90.5487505,92.2940948 85.1720973,86.9174416 85.1720973,80.3000223 C85.1720973,73.6826029 90.5487505,68.3059497 97.1661698,68.3059497 C103.783589,68.3059497 109.160242,73.6826029 109.160242,80.3000223" fill="#7000F2"/>
    </g>
    <path d="M492.143388,79.8864335 L483.044436,79.8864335 L463.192178,30.6693771 L473.118307,30.6693771 L487.593912,68.7195384 L502.069517,30.6693771 L511.995646,30.6693771 L492.143388,79.8864335 L492.143388,79.8864335 Z M422.660484,49.6944577 L450.784517,49.6944577 C450.370928,43.0770384 444.994275,37.7003852 436.7225,37.7003852 C429.691492,37.7003852 424.314839,42.249861 422.660484,49.6944577 L422.660484,49.6944577 Z M437.549678,81.5407884 C423.074073,81.5407884 412.734355,70.3738932 412.734355,55.4846997 C412.734355,40.5955061 423.074073,29.428611 437.136089,29.428611 C451.611694,29.428611 461.124234,39.35474 461.124234,56.3118771 L461.124234,57.1390545 L422.660484,57.1390545 C423.074073,66.6515948 430.105081,73.2690142 438.376855,73.2690142 C444.167097,73.2690142 449.130162,70.3738932 452.025283,64.5836513 L460.297057,68.7195384 C455.747581,76.5777239 447.475807,81.5407884 437.549678,81.5407884 L437.549678,81.5407884 Z M379.647259,81.5407884 C366.826009,81.5407884 356.072702,69.9603045 356.072702,55.4846997 C356.072702,41.0090948 366.826009,29.428611 379.647259,29.428611 C386.678267,29.428611 393.295686,32.7373206 396.604396,37.7003852 L397.017984,37.7003852 L396.604396,31.0829658 L396.604396,8.33558677 L405.703347,8.33558677 L405.703347,79.8864335 L397.017984,79.8864335 L397.017984,73.2690142 L396.604396,73.2690142 C392.882097,78.2320787 386.678267,81.5407884 379.647259,81.5407884 L379.647259,81.5407884 Z M380.888025,73.2690142 C389.986976,73.2690142 396.604396,66.2380061 396.604396,55.4846997 C396.604396,45.1449819 389.986976,37.7003852 380.888025,37.7003852 C372.202662,37.7003852 365.171654,45.1449819 365.171654,55.4846997 C365.171654,65.8244174 372.202662,73.2690142 380.888025,73.2690142 Z M352.763992,73.6826029 C352.763992,77.4049013 349.868871,80.3000223 345.732984,80.3000223 C342.010686,80.3000223 338.701976,76.9913126 338.701976,73.6826029 C338.701976,69.9603045 342.010686,67.0651835 345.732984,67.0651835 C349.868871,67.0651835 352.763992,69.9603045 352.763992,73.6826029 Z M309.337178,73.2690142 C318.022541,73.2690142 325.053549,65.8244174 325.053549,55.4846997 C325.053549,45.1449819 318.022541,37.7003852 309.337178,37.7003852 C300.238226,37.7003852 293.620807,45.1449819 293.620807,55.4846997 C293.620807,65.8244174 300.238226,73.2690142 309.337178,73.2690142 Z M310.991533,81.5407884 C303.960525,81.5407884 297.343105,78.2320787 294.034396,73.2690142 L293.620807,73.2690142 L293.620807,79.8864335 L284.935444,79.8864335 L284.935444,8.33558677 L294.034396,8.33558677 L294.034396,31.0829658 L293.620807,37.7003852 L294.034396,37.7003852 C297.343105,32.7373206 303.546936,29.428611 310.991533,29.428611 C323.812783,29.428611 334.566089,41.0090948 334.566089,55.4846997 C334.1525,69.9603045 323.812783,81.5407884 310.991533,81.5407884 L310.991533,81.5407884 Z M239.027097,49.6944577 L267.15113,49.6944577 C266.737541,43.0770384 261.360888,37.7003852 253.089113,37.7003852 C246.058105,37.7003852 240.681452,42.249861 239.027097,49.6944577 L239.027097,49.6944577 Z M253.916291,81.5407884 C239.440686,81.5407884 229.100968,70.3738932 229.100968,55.4846997 C229.100968,40.5955061 239.440686,29.428611 253.502702,29.428611 C267.978307,29.428611 277.490847,39.35474 277.490847,56.3118771 L277.490847,57.1390545 L239.027097,57.1390545 C239.440686,66.6515948 246.471694,73.2690142 254.743468,73.2690142 C260.53371,73.2690142 265.083186,70.3738932 268.391896,64.5836513 L276.66367,68.7195384 C272.114194,76.5777239 263.84242,81.5407884 253.916291,81.5407884 L253.916291,81.5407884 Z M227.860202,31.0829658 L212.143831,80.3000223 L202.631291,80.3000223 L190.22363,42.6634497 L178.229557,80.3000223 L168.717017,80.3000223 L152.587057,31.0829658 L162.099597,31.0829658 L172.852904,68.3059497 L184.846976,31.0829658 L194.359517,31.0829658 L206.353589,68.3059497 L217.106896,31.0829658 L227.860202,31.0829658 L227.860202,31.0829658 Z" fill="#5F6368"/>
  </g>
</svg>

<svg width="512" height="96" xmlns="http://www.w3.org/2000/svg" preserveAspectRatio="xMidYMid"><path d="M96.753 68.306h-36.81c-.413 0-1.24 0-1.654.414l-27.71 21.92c-.414.413-.414.827 0 1.24 0 .414.413.414.827.414h65.76c6.618 0 12.408-5.79 11.994-12.821-.413-6.618-6.204-11.167-12.407-11.167" fill="#00C9DB"/><path d="M66.722 45.215c-.414-3.308-2.068-6.617-4.55-8.685l-42.6-33.914C14.197-1.52 6.753-.694 2.617 4.684-1.52 10.06-.694 17.504 4.684 21.64l31.019 24.815-31.02 24.815C-.692 75.407-1.52 82.851 2.617 88.23c4.136 5.376 11.58 6.203 16.957 2.067l42.6-34.741c2.895-2.482 4.549-5.79 4.549-9.513v-.827" fill="#0D55FF"/><path d="M109.16 80.3c0 6.617-5.376 11.994-11.994 11.994-6.617 0-11.994-5.377-11.994-11.994s5.377-11.994 11.994-11.994c6.618 0 11.994 5.377 11.994 11.994" fill="#7000F2"/><path d="M492.143 79.886h-9.099L463.192 30.67h9.926l14.476 38.05 14.476-38.05h9.926l-19.853 49.217ZM422.66 49.694h28.125c-.414-6.617-5.79-11.994-14.063-11.994-7.03 0-12.407 4.55-14.062 11.994Zm14.89 31.847c-14.476 0-24.816-11.167-24.816-26.056 0-14.89 10.34-26.056 24.402-26.056 14.476 0 23.988 9.926 23.988 26.883v.827H422.66c.414 9.513 7.445 16.13 15.717 16.13 5.79 0 10.753-2.895 13.648-8.685l8.272 4.136c-4.55 7.858-12.821 12.82-22.747 12.82Zm-57.903 0c-12.821 0-23.574-11.58-23.574-26.056s10.753-26.056 23.574-26.056c7.031 0 13.649 3.308 16.957 8.271h.414l-.414-6.617V8.336h9.1v71.55h-8.686V73.27h-.414c-3.722 4.963-9.926 8.272-16.957 8.272Zm1.241-8.272c9.099 0 15.716-7.031 15.716-17.784 0-10.34-6.617-17.785-15.716-17.785-8.685 0-15.716 7.445-15.716 17.785s7.03 17.784 15.716 17.784Zm-28.124.414c0 3.722-2.895 6.617-7.031 6.617-3.722 0-7.031-3.309-7.031-6.617 0-3.723 3.309-6.618 7.031-6.618 4.136 0 7.031 2.895 7.031 6.618Zm-43.427-.414c8.686 0 15.717-7.445 15.717-17.784 0-10.34-7.031-17.785-15.717-17.785-9.099 0-15.716 7.445-15.716 17.785s6.617 17.784 15.716 17.784Zm1.655 8.272c-7.031 0-13.649-3.309-16.958-8.272h-.413v6.617h-8.686V8.336h9.1v22.747l-.414 6.617h.413c3.31-4.963 9.513-8.271 16.958-8.271 12.82 0 23.574 11.58 23.574 26.056-.413 14.475-10.753 26.056-23.574 26.056Zm-71.965-31.847h28.124c-.413-6.617-5.79-11.994-14.062-11.994-7.03 0-12.408 4.55-14.062 11.994Zm14.89 31.847c-14.476 0-24.816-11.167-24.816-26.056 0-14.89 10.34-26.056 24.402-26.056 14.475 0 23.988 9.926 23.988 26.883v.827h-38.464c.414 9.513 7.445 16.13 15.716 16.13 5.79 0 10.34-2.895 13.649-8.685l8.272 4.136c-4.55 7.858-12.822 12.82-22.748 12.82ZM227.86 31.083 212.144 80.3h-9.513l-12.407-37.637L178.23 80.3h-9.513l-16.13-49.217h9.513l10.753 37.223 11.994-37.223h9.513l11.994 37.223 10.753-37.223h10.753Z" fill="#5F6368"/></svg>
